Sources/FrostedUI/Resources/Icons.xcassets/inbox16.imageset/inbox-16.svg

<svg width="16" height="16" viewBox="0 0 16 16" fill="none" xmlns="http://www.w3.org/2000/svg" data-fui-icon="true">
  <g clip-path="url(#clip0_3954_18)">
    <path
      d="M12.7998 0.25C14.4291 0.25004 15.75 1.57087 15.75 3.2002V12.7998C15.75 14.4291 14.4291 15.75 12.7998 15.75H3.2002C1.57087 15.75 0.25004 14.4291 0.25 12.7998V3.2002C0.25004 1.57087 1.57087 0.25004 3.2002 0.25H12.7998ZM1.75 12.7998C1.75004 13.6007 2.39929 14.25 3.2002 14.25H12.7998C13.6007 14.25 14.25 13.6007 14.25 12.7998V10.1504H11.0977C10.7441 11.5026 9.46055 12.4834 8 12.4834C6.53945 12.4834 5.25589 11.5026 4.90234 10.1504H1.75V12.7998ZM3.2002 1.75C2.39929 1.75004 1.75004 2.39929 1.75 3.2002V8.65039H5.55566C5.96987 8.6504 6.30566 8.98618 6.30566 9.40039C6.3059 10.2312 7.04271 10.9834 8 10.9834C8.95729 10.9834 9.69411 10.2312 9.69434 9.40039C9.69434 8.98618 10.0301 8.6504 10.4443 8.65039H14.25V3.2002C14.25 2.39929 13.6007 1.75004 12.7998 1.75H3.2002Z"
      fill="currentColor"
    />
  </g>
  <defs>
    <clipPath id="clip0_3954_18"><path fill="currentColor" d="M0 0H16V16H0z" /></clipPath>
  </defs>
</svg>

<svg xmlns="http://www.w3.org/2000/svg" width="16" height="16" fill="none" data-fui-icon="true" viewBox="0 0 16 16"><g clip-path="url(#a)"><path fill="currentColor" d="M12.8.25a2.95 2.95 0 0 1 2.95 2.95v9.6a2.95 2.95 0 0 1-2.95 2.95H3.2A2.95 2.95 0 0 1 .25 12.8V3.2A2.95 2.95 0 0 1 3.2.25zM1.75 12.8c0 .8.65 1.45 1.45 1.45h9.6c.8 0 1.45-.65 1.45-1.45v-2.65h-3.152C10.744 11.503 9.46 12.483 8 12.483s-2.744-.98-3.098-2.333H1.75zM3.2 1.75c-.8 0-1.45.65-1.45 1.45v5.45h3.806a.75.75 0 0 1 .75.75c0 .831.737 1.583 1.694 1.583s1.694-.752 1.694-1.583a.75.75 0 0 1 .75-.75h3.806V3.2c0-.8-.65-1.45-1.45-1.45z"/></g><defs><clipPath id="a"><path fill="currentColor" d="M0 0h16v16H0z"/></clipPath></defs></svg>
